images/insta.svg

<svg width="24" height="24" viewBox="0 0 24 24" fill="none" xmlns="http://www.w3.org/2000/svg">
<path d="M12 2.5C16.4783 2.5 18.7171 2.50038 20.1084 3.8916C21.4996 5.28285 21.5 7.52166 21.5 12C21.5 16.4783 21.4996 18.7171 20.1084 20.1084C18.7171 21.4996 16.4783 21.5 12 21.5C7.52166 21.5 5.28285 21.4996 3.8916 20.1084C2.50038 18.7171 2.5 16.4783 2.5 12C2.5 7.52166 2.50036 5.28285 3.8916 3.8916C5.28285 2.50036 7.52166 2.5 12 2.5ZM12 6.75C9.10051 6.75 6.75 9.10051 6.75 12C6.75 14.8995 9.10051 17.25 12 17.25C14.8995 17.25 17.25 14.8995 17.25 12C17.25 9.10052 14.8995 6.75001 12 6.75ZM12 8.25C14.0711 8.25001 15.75 9.92894 15.75 12C15.75 14.0711 14.0711 15.75 12 15.75C9.92893 15.75 8.25 14.0711 8.25 12C8.25 9.92893 9.92893 8.25 12 8.25ZM17.499 5.5C16.9468 5.5 16.4991 5.94778 16.499 6.5C16.499 7.05228 16.9467 7.5 17.499 7.5H17.5078C18.06 7.49989 18.5078 7.05222 18.5078 6.5C18.5077 5.94785 18.06 5.50011 17.5078 5.5H17.499Z" fill="#AEAEAE"/>
</svg>

<svg xmlns="http://www.w3.org/2000/svg" width="24" height="24" fill="none"><path fill="#AEAEAE" d="M12 2.5c4.478 0 6.717 0 8.108 1.392C21.5 5.282 21.5 7.522 21.5 12s0 6.717-1.392 8.108C18.718 21.5 16.478 21.5 12 21.5s-6.717 0-8.108-1.392C2.5 18.718 2.5 16.478 2.5 12s0-6.717 1.392-8.108C5.282 2.5 7.522 2.5 12 2.5m0 4.25a5.25 5.25 0 1 0 0 10.5 5.25 5.25 0 0 0 0-10.5m0 1.5a3.75 3.75 0 1 1 0 7.5 3.75 3.75 0 0 1 0-7.5m5.499-2.75a1 1 0 0 0 0 2h.009a1 1 0 0 0 0-2z"/></svg>
